X:1
T:Come, clap your hands - Weelkes
T:James Gibb editions
T:#
%%score { 1 | 2 } 3 4 5
L:1/8
Q:1/4=120
M:4/4
K:F
V:1 treble nm="Soprano I" snm="S"
V:2 treble 
V:3 treble nm="Alto" snm="A"
V:4 treble-8 nm="Tenor" snm="T"
V:5 bass nm="Bass" snm="B"
V:1
"^Come, clap thy hands" z8 | d6 cB | A2"^Thomas Weelkes\n(1576-1623)" G2 G2 ^F2 | G4 z4 | %4
w: |Come, clap thy|hands, thou shep- herds|swain,|
[M:4/4] z8 | z8 | f6 ed | ^cA d4 c2 | d8 | z2 f4 _ed | c2 f4 _ed | c2 B2 B2 A2 | B4 z2 f2- | %13
w: ||come, clap thy|hands, thou shep- herds|swain,|come, clap thy|hands, come, clap thy|hands thou shep- herds|swain, Phyl\-|
 f_e d2 d2 A2 | B3 B F2 (d2- | dc) B2 A2 A2 | z2 g3 f _e2 | d2 (cB) A2 G2 | A2 (Bc d4) | d8 | %20
w: * lis doth love thee|once a- gain, Phyl\-|* * lis doth love,|Phyl- lis doth|love thee * once a-|gain, a\- * *|gain!|
 z4 z2 B2- | BB A2 B2 G2 | d3 d d2 f2- | ff e2 f2 g2 | e3 e ^f2 d2- | dc A2 B2 B2 | A2 A2 G2 d2- | %27
w: If|* thou a- gree, then|sing with me, if|* thou a- gree, then|sing with me: Phyl\-|* lis my choice of|choice shall be, Phyl\-|
 dc A2 =B3 c | d2 d2 G2 g2- | gf d2 _e2 e2 | d4 (c3 B) | A4 z4 | z2 d3 c A2 | B2 B2 A2 A2 | %34
w: * lis my choice of|choice shall be, Phyl\-|* lis my choice of|choice shall *|be,|Phyl- lis my|choice of choice shall|
 G2 z2 z4 | z2 d3 e ^f2 | g2 G2 A2 A2 | G2 d3 e ^f2 | g4 _e4 | d8 | d8 | !fermata!d8 |] %42
w: be,|Phyl- lis my|choice of choice shall|be, Phyl- lis my|choice of|choice|shall|be.|
V:2
 z4 d4- | d2 cB A2 G2 | d2 B2 A4 | z4 B4- |[M:4/4] B2 AG FD G2- | G2 ^F2 G2 d2- | d2 cB A4- | %7
w: Come,|* clap thy hands, thou|shep- herds swain,|come,|* clap thy hands, thou shep\-|* herds swain, come,|* clap thy hands,|
 A2 B2 A3 A | A2 z2 z2 d2- | d2 cB A2 f2- | f2 _ed c2 B2 | A2 (B2 c4) | d2 f3 _e d2 | c2 B2 A2 A2 | %14
w: * thou shep- herds|swain, come,|* clap thy hands, come,|* clap thy hands, thou|shep- herds *|swain, Phyl- lis doth|love thee once a-|
 G2 d3 c B2 | A2 G2 E2 E2 | ^F2 z4 g2- | gf _e2 d2 c2 | d6 A2 | =B4 z2 _B2- | BB A2 B2 G2 | %21
w: gain, Phyl- lis doth|love thee once a-|gain, Phyl\-|* lis doth love thee|once a-|gain! If|* thou a- gree, then|
 d3 d d2 c2 | B2 A2 B2 z2 | z6 d2- | dd ^c2 d2 A2 | A2 D2 D2 d2- | dc A2 B2 B2 | A2 A2 G2 g2- | %28
w: sing with me, then|sing with me,|if|* thou a- gree, then|sing with me: Phyl\-|* lis my choice of|choice shall be, Phyl\-|
 gf d2 _e2 e2 | d2 d2 c2 g2- | gf d2 _e2 e2 | d2 d3 c A2 | B2 B2 A2 A2 | G2 d3 c A2 | B2 A2 A2 A2 | %35
w: * lis my choice of|choice shall be, Phyl\-|* lis my choice of|choice, Phyl- lis my|choice of choice shall|be, Phyl- lis my|choice of choice shall|
 G4 z4 | z2 d3 e ^f2 | g2 G2 A2 A2 | G6 A2 | ^F4 (G4- | G4 ^F4) | !fermata!G8 |] %42
w: be,|Phyl- lis my|choice of choice shall|be, of|choice shall||be.|
V:3
 G6 FE | D6 E2 | (^F2 G2) D4 | G,2 G4 F_E |[M:4/4] D6 _E2 | D3 D D2 B2- | B2 AG F4- | F2 G2 E3 E | %8
w: Come, clap thy|hands, thou|shep\- * herds|swain, come, clap thy|hands, thou|shep- herds swain, come,|* clap thy hands,|* thou shep- herds|
 ^F2 B4 AG | =F2 G2 A4- | A2 F2 F4- | F2 F2 F3 F | F8 | z2 D3 E ^F2 | G4 D4- | D4 z2 A2- | %16
w: swain, come, clap thy|hands, thou shep\-|* herds swain,|* thou shep- herds|swain,|Phyl- lis doth|love thee,|* Phyl\-|
 AA G2 G4- | G2 G2 ^F2 G2 | ^F2 (G4 F2) | G8 | z4 z2 G2- | GG ^F2 G2 _E2 | D3 D G2 d2- | %23
w: * lis doth love|* thee once a-|gain, a\- *|gain!|If|* thou a- gree, then|sing with me, if|
 dd ^c2 d2 G2 | A3 A D2 ^F2- | FG A2 G2 G2 | A2 D2 D2 D2- | DE ^F2 G2 G2 | G4- G2 G2 | G4 z2 G2- | %30
w: * thou a- gree, then|sing with me: Phyl\-|* lis my choice of|choice shall be, Phyl\-|* lis my choice of|choice * shall|be, Phyl\-|
 GA =B2 c2 C2 | D2 D2 D4 | z8 | z2 D3 E ^F2 | G2 d3 c A2 | B2 B2 A2 A2 | G4 z2 d2- | dc B2 A2 D2 | %38
w: * lis my choice of|choice shall be,||Phyl- lis my|choice, Phyl- lis my|choice of choice shall|be, Phyl\-|* lis my choice of|
 D4 z4 | z4 D4- | D2 C2 A,4 | !fermata!=B,8 |] %42
w: choice,|of|* choice shall|be.|
V:4
 z8 | z8 | z8 | z2 _e4 dc |[M:4/4][K:treble-8] B6 c2 | A3 A G4 | d6 cB | A2 G2 A3 A | d2 g4 f_e | %9
w: |||Come, clap thy|hands, thou|shep- herds swain,|come, clap thy|hands, thou shep- herds|swain, come, clap thy|
 d2 d2- d2 cB | A2 B2 A2 B2 | c2 d2 c3 c | B2 d3 c B2 | A2 (Bc) d2 d2 | G4 z4 | z2 d3 d ^c2 | %16
w: hands, come, * clap thy|hands, thou shep- herds|swain, thou shep- herds|swain, Phyl- lis doth|love thee * once a-|gain,|Phyl- lis doth|
 d2 B2 B2 c2 | d2 z2 A2 c2- | c2 B2 A3 A | G4 z2 g2- | gg ^f2 g2 _e2 | d3 d G2 g2- | gg ^f2 g2 d2 | %23
w: love thee once a-|again, doth love|* thee once a-|gain! If|* thou a- gree, then|sing with me, if|* thou a- gree, then|
 a3 a d2 z2 | z4 z4 | z4 z2 d2- | de ^f2 g2 g2 | d2 d2 G4 | z4 z2 G2- | GA =B2 c4 | g4 c2 g2 | %31
w: sing with me:||Phyl\-|* lis my choice of|choice shall be,|Phyl\-|* lis my choice|of choice shall|
 ^f2 f3 g a2 | d2 d3 e ^f2 | g2 G2 d2 d2 | G2 ^F3 G A2 | d2 d3 c A2 | B2 G2 D2 D2 | G2 d3 c A2 | %38
w: be, Phyl- lis my|choice, Phyl- lis my|choice of choice shall|be, Phyl- lis my|choice, Phyl- lis my|choice of choice shall|be, Phyl- lis my|
 B4 c4- | c4 B4 | A8 | !fermata!G8 |] %42
w: choice of|* choice|shall|be.|
V:5
 z8 | z8 | z8 | z4 G,4- |[M:4/4] G,2 F,_E, D,2 C,2 | D,3 D, G,,4 | z8 | z8 | z4 B,4- | %9
w: |||Come,|* clap thy hands, thou|shep- herds swain,|||come,|
 B,2 A,G, F,4- | F,4 F,4 | F,6 F,2 | B,,8 | z8 | z2 B,3 A, G,2 | ^F,2 G,2 A,3 A, | %16
w: * clap thy hands,|* thou|shep- herds|swain,||Phyl- lis doth|love thee once a-|
 D,2 _E,3 D, C,2 | B,,2 C,2 D,2 _E,2 | D,8 | G,,8 | z8 | z8 | z8 | z8 | z4 z2 D,2- | %25
w: gain, Phyl- lis doth|love thee once a\-||again!|||||Phyl\-|
 D,E, ^F,2 G,2 G,2 | D,2 D,2 G,,4 | z4 z2 G,2- | G,A, =B,2 C2 C,2 | G,2 G,2 C,4 | z8 | %31
w: * lis my choice of|choice shall be,|Phyl\-|* lis my choice of|choice shall be,||
 z2 D,3 E, ^F,2 | G,2 G,2 D,2 D,2 | G,,4 z4 | z2 D,3 E, ^F,2 | G,2 G,2 D,2 D,2 | G,2 D3 C A,2 | %37
w: Phyl- lis my|choice of choice shall|be,|Phyl- lis my|choice of choice shall|be, Phyl- lis my|
 B,2 G,2 D,2 D,2 | G,4 C,4 | D,8 | D,8 | !fermata!G,,8 |] %42
w: choice of choice shall|be, of|choice|shall|be.|

